X: 10432
M: C|
L: 1/8
K: C
[|\
vGcBc dcBc | Bcdc AcGF | EGcB AFdc | Bdgf efdB | GcBc dcBc |
gceg | fdBG | c2(cf) | efga gefa | gcec Bdgf | efdB ce GE | Ff dB "_D.C."c2 c"_Fine."z |]


